X: 12534
T: Farewell To Kennedy
R: jig
M: 6/8
K: Dmajor
|:F2A AFA|BdB AFE|~F3 AFE|FED B2A|
F2A AFA|BdB AFE|~B3 BAF|DEF E2D:|
|:~d3 BAB|dAF DFA|~d3 BAB|dfd ecA|
~d3 BAB|dAF D2E|~F3 BAF|DEF E2D:|

